resources/svg/linkedin-option.svg

<svg xmlns="http://www.w3.org/2000/svg" viewBox="0 0 24 24" fill="currentColor"><path fill="currentColor" fill-rule="evenodd" d="M22.0367422,22 L17.8848745,22 L17.8848745,15.5036305 C17.8848745,13.9543347 17.85863,11.9615082 15.7275829,11.9615082 C13.5676669,11.9615082 13.237862,13.6498994 13.237862,15.3925291 L13.237862,22 L9.0903683,22 L9.0903683,8.64071385 L13.0707725,8.64071385 L13.0707725,10.4673257 L13.1276354,10.4673257 C13.6813927,9.41667396 15.0356049,8.3091593 17.0555507,8.3091593 C21.2599073,8.3091593 22.0367422,11.0753215 22.0367422,14.6734319 L22.0367422,22 Z M4.40923804,6.81585163 C3.07514653,6.81585163 2,5.73720584 2,4.40748841 C2,3.07864579 3.07514653,2 4.40923804,2 C5.73720584,2 6.81585163,3.07864579 6.81585163,4.40748841 C6.81585163,5.73720584 5.73720584,6.81585163 4.40923804,6.81585163 L4.40923804,6.81585163 Z M6.48604672,22 L2.32980492,22 L2.32980492,8.64071385 L6.48604672,8.64071385 L6.48604672,22 Z"/></svg>

<svg viewBox="0 0 24 24"><path fill="currentColor" fill-rule="evenodd" d="M22.037 22h-4.152v-6.496c0-1.55-.026-3.542-2.157-3.542c-2.16 0-2.49 1.688-2.49 3.43V22H9.09V8.64h3.98v1.827h.058c.553-1.05 1.908-2.158 3.928-2.158c4.204 0 4.98 2.766 4.98 6.364V22zM4.409 6.816A2.407 2.407 0 0 1 2 4.407a2.408 2.408 0 1 1 2.41 2.408zM6.486 22H2.33V8.64h4.156V22z"/></svg>
